X:1
T:Title
%%score { ( 1 2 ) | ( 3 4 ) }
L:1/8
M:4/4
K:F
V:1 treble nm="Grand Piano"
V:2 treble 
V:3 treble 
V:4 treble 
V:1
 z8[Q:1/4=100] | z8 | z8 | z8 |[M:9/8] z3 z3 z c2 |[M:4/4] z8 | z8 | z8 |[M:3/4] z6 |[M:1/4] z2 | %10
[M:4/4] z8 | z8 | z8 | z8 | z8 | z8 | z8 |[M:3/4] z6 | z6 |] %19
V:2
 z4 z2 [Ac]>B- | B A2 A- A A2 A- | A A2 [EG]- [EG] [DF]2 [EG]- | [EG] A2 F- F B2 A- | %4
[M:9/8] A [EG]2- [EG]3- [EG]G->[GB]- |[M:4/4] [GB] A2 A- A A2 A- | A A2 [EG]- [EG] F2 [Fc]- | %7
 [Fc] [F,D]2 [DGB]- [DGB] [CFA]2 [B,EG]- |[M:3/4] [B,EG][A,F]- [A,F]4- |[M:1/4] [A,F][Fc]- | %10
[M:4/4] [Fc] [Ec]2 [EG]- [EG]3 [Gc]- | [Gc] [Ac]2 A- A3 c- | c d2 c- c F2 A- | %13
 A [EG]3- [EG]3 [Ec]- | [Ec] c2 A- A3 c- | c [Fd]2 [DFB]- [DFB]3 [B,DG]- | %16
 [B,DG] [A,CF]2 [CFA]- [CFA] [B,EG]2 [G,CE]- |[M:3/4] [G,CE][A,CF]- [A,CF]4- | [A,CF] z z2 z2 |] %19
V:3
 z4 z2 z z/ G/- | G [F,CF]2 [A,CF]- [A,CF] [CF]2 [A,CF]- | %2
 [A,CF][K:bass] [F,CF]2 [C,B,]- [C,B,] [D,A,]2 [C,C]- | %3
 [C,C] [F,CF]2 [F,A,]- [F,A,] [F,DF]2 [F,CF]- |[M:9/8] [F,CF] [C,C]2- [C,C]3- [C,C] [E,C]2- | %5
[M:4/4] [E,C][K:treble] [F,CF]2 [A,CF]- [A,CF] [CF]2 [A,CF]- | %6
 [A,CF][K:bass] [F,CF]2 [C,B,]- [C,B,] [D,A,]2 [A,,F,]- | [A,,F,] B,,2 B,,- B,, C,2 C,- | %8
[M:3/4] C,F,- F,4- |[M:1/4] F,[F,A,]- |[M:4/4] [F,A,] [C,G,]2 [C,C]- [C,C]3 [C,C]- | %11
 [C,C] [F,C]2 [F,CF]- [F,CF]3 [F,A,F]- | [F,A,F] [F,B,F]2 [F,A,F]- [F,A,F] [A,C]2 [F,CF]- | %13
 [F,CF] [C,C]3- [C,C]3 [C,B,]- | [C,B,] [F,A,F]2 [F,CF]- [F,CF]3 [F,A,_E]- | %15
 [F,A,E] [B,,B,]2 B,,- B,,3 B,,- | B,, C,2 C,- C, C,2 C,- |[M:3/4] C,F,- F,4- | F, z z2 z2 |] %19
V:4
 z4 z2 [F,C]2- | [F,C] z z2 z4 | x[K:bass] x7 | x8 |[M:9/8] x9 |[M:4/4] x[K:treble] x7 | %6
 x[K:bass] x7 | x8 |[M:3/4] x6 |[M:1/4] x2 |[M:4/4] x8 | x8 | x8 | x8 | x8 | x8 | x8 |[M:3/4] x6 | %18
 x6 |] %19

